!!!OTL: 738. Lob- und Danklied. / [Nach dem Ambrosianischen Lobgesang.] / a. Aelteste Form.
!!!ODT: 1774 (Mel)
!!!ARE: Europa, Mitteleuropa, Deutschland
!!!SCT: B0738
!!!TXL: @@DE
!!!YEM: Copyright 1995, estate of Helmut Schaffrath.
**kern	**text
*ICvox	*
*Ivox	*
*clefG2	*
*M6/8	*
*k[f#]	*
*G:	*
=1	=1
{4g	Gro-
8g	-ßer
4g	Gott,
8g	wir
=2	=2
8aL	lo-
8gJ	.
8a	-ben
4.g}	dich,
=3	=3
{4b	Herr,
8b	wir
8bL	preiſen
8ccJ	.
8dd	.
=4	=4
4dd	dei-
8cc	-ne
8ccqq	.
4b	Stär-
8a;}	-ke
=5	=5
{4g	vor
8g	dir
4g	neigt
8g	die
=6	=6
8aL	Er-
8gJ	.
8a	-de
4.g}	ſich
=7	=7
{4b	und
8b	be-
8bL	-wundert
8ccJ	.
8dd	.
=8	=8
4dd	dei-
8cc	-ne
8ccqq	.
4b	Wer-
8a;}	-ke.
=9	=9
{8aL	Wie
8bJ	.
8cc	du
4cc	warſt
8a	vor
=10	=10
8bL	al-
8ccJ	.
8dd	-ler
4.dd}	Ʒeit,
=11	=11
{8eeL	ſo
8ccJ	.
8ee	bleibſt
4dd	du
8b	in
=12	=12
8ccL	E-
8bJ	.
8a	-wig-
4.g}	-keit.
==	==
!!!AGN: Lob -, Dank - Lied, religioes
!!!GTL: Religioese Lieder
!!!ONB: ESAC (Essen Associative Code) Database: BOEHME
!!!AMT: compound duple
!!!AIN: vox
!!!EED: Helmut Schaffrath
!!!EEV: 1.0
!!@@COMMENT:"Dieſes weitverbreitete geiſtliche Volkslied ſteht ʒuerſt im "Wiener kathol. Geſangbuch der
!!Melodie. Ueber Dichter und Komponiſten wiſſen wir nichts, aber vielerlei Vermuthungen find
!!darüber aufgetaucht. So ſoll die Melodie nach Erks Angaben von Peter Ritter (Concertmeiſter
!!und Komponiſt von Opern in Mannheim) 1792 gefertigt ſein, der niemals nach Wien ʒur Mit-
!!wirkung an jenem Geſangbuch gekommen iſt. Mehr vergleiche Bäumker, das kath. Kirchenlied III.
!!Nr. 219. Jn Liederheften für prot. Schulen findet man das Lied ſo gekürʒt, daß 3. 4. 9. 10.
!!11. Str. fortbleiben. Jn Katechetiſche Geſänge für die Jugend" (Wien 1779), - dann: in Lieder
!!ʒur öffentl. und häusl. Andacht" (Prag 1783) findet man es aufgenommen und bis beute faſt in
!!allen kathol. Geſangbüchern. - Jn v. Ditfurths fränk. Volksliedern J, Rr. 60 dient die Mel. ʒu
!!einem Wallfahrtsliede (Maria ʒu Dittelbach: "Endlich ſind wir kommen an" rc. )."
!!@@END:
!!!URL-scan: https://archive.org/details/BoehmeVtLieder1895/page/n591/mode/2up
!!!ENC: Anna Maria Matuszewska
!!!EEV: 2024/18/07
*-	*-
